app/medias/svg/mobile_large.svg

<?xml version="1.0" encoding="UTF-8"?>
<svg xmlns="http://www.w3.org/2000/svg" xmlns:xlink="http://www.w3.org/1999/xlink" width="24" height="24" viewBox="0 0 24 24">
<path fill-rule="nonzero" fill="rgb(0%, 0%, 0%)" fill-opacity="1" stroke-width="1" stroke-linecap="butt" stroke-linejoin="miter" stroke="rgb(0%, 0%, 0%)" stroke-opacity="1" stroke-miterlimit="4" d="M 149.333333 0 C 114.166667 0 85.333333 28.916667 85.333333 64 L 85.333333 448 C 85.333333 483.083333 114.166667 512 149.333333 512 L 362.583333 512 C 397.666667 512 426.583333 483.083333 426.583333 448 L 426.583333 64 C 426.583333 28.916667 397.666667 0 362.583333 0 Z M 149.333333 42.666667 L 362.583333 42.666667 C 374.416667 42.666667 383.916667 52.166667 383.916667 64 L 383.916667 448 C 383.916667 459.833333 374.416667 469.333333 362.583333 469.333333 L 149.333333 469.333333 C 137.5 469.333333 128 459.833333 128 448 L 128 64 C 128 52.166667 137.5 42.666667 149.333333 42.666667 Z M 256 405.333333 C 244.166667 405.333333 234.666667 414.916667 234.666667 426.583333 C 234.666667 438.333333 244.333333 448 256 448 C 267.666667 448 277.333333 438.416667 277.333333 426.666667 C 277.333333 415 267.833333 405.333333 256 405.333333 Z M 256 405.333333 " transform="matrix(0.046875, 0, 0, 0.046875, 0, 0)"/>
</svg>

<?xml version="1.0" encoding="utf-8"?>
<svg version="1.1" id="Layer_1" xmlns="http://www.w3.org/2000/svg" xmlns:xlink="http://www.w3.org/1999/xlink" x="0px" y="0px"
	 viewBox="0 0 512 512" style="enable-background:new 0 0 512 512;" xml:space="preserve">
	<path d="M149.3,0c-35.1,0-64,28.9-64,64v384c0,35.1,28.9,64,64,64h213.3c35.1,0,64-28.9,64-64V64c0-35.1-28.9-64-64-64H149.3z
		 M149.3,42.7h213.3c11.8,0,21.3,9.5,21.3,21.3v384c0,11.8-9.5,21.3-21.3,21.3H149.3c-11.8,0-21.3-9.5-21.3-21.3V64
		C128,52.2,137.5,42.7,149.3,42.7z M256,405.3c-11.8,0-21.3,9.6-21.3,21.3S244.3,448,256,448s21.3-9.6,21.3-21.3
		S267.8,405.3,256,405.3z"
        stroke="currentColor" />
</svg>
